X: 2
T: Lass On The Strand, The
M: 4/4
L: 1/8
R: hornpipe / schottische
K: Gmaj
|: (3fga |\
b>gd>B G>Bd>g | f2 e2 c3 e | d>cA>F D2 (3DEF | G>AB>c d2 g>a |
b>gd>B G2 (3Bdg | (3fgf (3ecA E2 ^D>E | D>dc>A F>DE>F | G2 g2 G2 :|
|: D>G |\
F>GA>B c2 (3DEF | G>AB>c d2 (3BAG | A>^GA>B c>DE>F | G>AB>c d2 (3Bdg |
b>gd>B G>Bd>g | f>ec>A e2 ^d>e | d>cA>F D>c (3cBA | G2 D2 G2 :|
